X: 151
T: Sandy Cameron
T: (The Famous Athlete)
C: J. Scott Skinner
R: strathspey
Z: 2009 John Chambers <jc:trillian.mit.edu>
F: http://www.abdn.ac.uk/scottskinner/display.php?ID=JSS0711 Oct 2009
N: First of two variants, by J.S.Skinner
P: Pipe Strathspey
M: C
L: 1/16
K: A
{g}a2 \
| "A"AAA2 (c3A) (e3A) (c3A) | "Bm"BBB2 (d3B) (f3B) (d3B) \
| "A"AAA2 (c3A) ({g}a3A) (c3A) | "D"ddd2 "E7"(B3e) "A"{cd}[c3E3][AE] [A2E2] :|
g2 \
| "A"(3a2g2f2 (3e2f2g2 a3e c2A | "G"(3=g2f2e2 (3d2e2f2 g3d B3=G \
| "A"(3a2^g2f2 (3e2f2g2 a3e c2A | "D"ddd2 "E7"(B3e) "A"({cd}c3A) (A3[ge] |
| "A"(3a2g2f2 (3e2f2g2 a3e c2A | "G"(3=g2f2e2 (3d2e2f2 g3d B3=G \
| "A"c3{B}A "Bm"d3{c}B "A/C#"e3{d}c "A"a3c | "D"ddd2 "E7"(B3e) "A"{cd}[c3E3][AE] [A2E2] |]

%%sep 1 1 500

